X: 1916
T: Uşşak Taksim
C: Tanburî Cemil Bey
O: Turkey
F: http://compmusic.upf.edu/node/140
N: ussak--taksim--serbest----tanburi_cemil_bey
N: makam= ussak
N: form= taksim
N: usul= serbest = 0/1
M: 0/1
L: 1/16
K: C _2/4B   
Q: 1/4=72
%%MIDI tuningsystem comma53
c4 _1/4B4 A4 A6 z2 B c3 c B3 A B G A3 B2 G F E F E8  | \
w:   | 
^F2 G2 A4 G2 F E F2 c _1/4B  | 
w:   | 
A2 _1/4B2 A G A2 A8  | A8 ^F2 G2 A2 G2  | \
w:   |   | 
c2 _1/4B2 A2 B2 A2 d2 c2 d2  | e4 d2 d d d c c c c _1/4B B3 A A12 z2  | 
w:   |   | 
G2 c16 c2 _1/4B2 c2 =B2 c3 B c2  | \
w:   | 
c3 =B c2 d4 G8 A B d3 c B3 A A2 B2  | 
w:   | 
G4 z4 A _1/4B d3 c B2  | A2 A2 _1/4B2 c2 d2 c2 B A2 B2 G12 G2 B8 A G A4 D E F  | 
w:   |   | 
G A _1/4B d c16 c4 d2 c B A B8 A2 B2 A2 B2 A2 B2 G4 c2 d2 c2 d2 c2 d2 B4 c4 d4 e6 d2 d d c2 c4 c c B2 B4 B B A2 A4 A G A  | 
w:   | 
_1/4B4 c4 B2 c2 B2 A2  | _1/4B2 A2 B A G4 A24 A2 B A ^F4 E4 D4 C4 _1/4B,4 A, G, A,16 f2 e2  | 
w:   |   | 
f2 g4 g f3 e4 e4 d2 d2 e4 f2 e4  | \
w:   | 
d3 c _1/4B A B8 c d  | c d8 d8 d8 G3 A G2 A2 A8 _1/4B2 c2 d2 e2 f2 g2 e2 f2 e4 d4 d2 e6 e4 f4 e2 d4 c8 d  | 
w:   |   | 
e3 d d d e e4 d2 c2 _1/4B  | A _1/4B2 d2 c4 e2 d4 c  | \
w:   |   | 
_1/4B3 B2 A4 A G A16 f2 e2 f2 e2 f2 e2 f2 g2 a _b a g f  | 
w:   | 
e d e8 d2 d2 e2  | f2 e2 f2 g4 f2 e2 d2  | \
w:   |   | 
e e d c c d d8 g8 ^f6 e4  | 
w:   | 
d4 e4 ^f4 g4  | a3/2 g/ ^f2 g2 f f e2 d2 e2 d d  | \
w:   |   | 
c2 _1/4B A B4 g4 ^f e d2  | 
w:   | 
e f3 e d c2 d2 c _1/4B A B4 c B A G8 A4  | \
w:   | 
_1/4B4 c4 d4 d8 d8 d8 d8 d8 G8 A8 B8 c8 d8 d c d8 z4 z4 d2  | 
w:   | 
e2 f2 e2 f2 e2 f2 g2 a a  | g g f e g2 f e f e f g a4  | 
w:   |   | 
g2 f3/4 e3/4 f e e2 a4 g2 g2 f4 f4 e4 g2 f e d c2 z2 d2 e2 f2 e z a4 g2 f e3 d4 d d d e3 g2 f e d e2 d4 c2 _1/4B A B6 c4 d4 e4 c c c B c4 d8 B B B2 c4 A G A8 A8 z8 G B A c B d c2 d4 c2 c c B A4 A3/2 B/ A B A A B c4 B2 A G3 A2 B2 A2 c2 B2 d2 c2 e2 d d c B c B8 A2 G2 G4 z4 G4 c4 B4 c3 B A4 z4 z4 B4 A4 B4 c4 d3 e B2 A2 G4 z4 c4 B4 c2 d4 e2 d2 c2 B2 z4 G3 A B3 A B2 c4 d2 d c B A G4 c4 B4 A2 G4 A3 B A2 c c c d3 c B A G A G c c2 B4 z4 B4 A2 G ^F G A c B A A8 A8 A8 A8 A8 A8 A8 z4 d g f g a _1/4b c' c' c' b b a a g g f f e d2 g2 f g f2 g2 a3 g e d d2 e f a g g f e d d c c4 B2 B A G2 c4 B4 A4 A2 d4 c B3 B2 A G =F G A B c8 B A A24 z6 z6 |
w:   | 


